X: 4
T: The Lake Bay Reel (©Frank Ferrel; R-113)
I: Lake Bay Reel, The	R-113	D	reel
M: C|
R: reel
K: D
(3ABc| "D"d2dc dAFA| dcde fdAd| "A7"gfed cdef| gfed cABc|
       "D"d2dc dAFA| dcde fdef| "A7"gfed cdec| Acec "D"d2 :|
|:fg| "D"a2ab afdf| abaf d2ef| "A7"g2ga gecd| efec ABcA|
    "D"dcde fdef| "G"gfga bagf| "A7"efec Acec| Acec "D"d2 :|

